X: 260
T:Battering Ram, The
M:6/8
L:1/8
R:jig
D:Dan: All Things Considered
Z:Devin McCabe
K:G
dBA B2A|GED G2B|dBA B2A|GBd efg|
!dBA B2A|GED G3|AGE A/2B/2A B|1GED D A/2B/2c:|2GED D2B|
!:deg a2b|ged edB|deg ~a3|gag g2e|
!deg a2b|ged edB|dBG A/2B/2A B|1GED D2B:|2GED D A/2B/2c||
